X:145
T: Meentogues Lad
S: "Johnny O'Leary of Sliabh Luachra" (#24)
Z: B.Black
Q: 350
L: 1/8
M: 12/8
R: slide
K: G
G2B d3 c/d/cA g2e|d2B G2B A2B cBA|
G2B d2B cAc g2e|ded cBA G3 G2e|
G2B d2B cAc g2e|dcd GAB A2B cBA|
G2B d2B c/d/cA g2e|ded cBA G3-Gd/e/f ||
g3 g2e f2f d2d|ece g2e ded B2d|
G2B d2B cAc g2e|d/e/fd cBA G3 Gd/e/f|
g3 g2e f2f eed|ece g2e d3 B2d|
G2B d2B cAc g2e|d/e/fd cBA G3 G2 e ||
